X:1
T:D minor                    Alexander Gillet, 1781
T:Isaac Watts, 1709 (Hymn 2, Book 2)       86. 86. (C. M.)
T:New England
T:Transcribed from Law's Select Number of Plain Tunes, 1781.
%%score [ 1 2 3 4 ]
L:1/8
Q:1/4=150
M:4/4
K:F
V:1 treble nm="Tr." snm="Tr."
V:2 treble nm="C." snm="C."
V:3 treble-8 nm="T." snm="T."
V:4 bass nm="B." snm="B."
V:1
"^1. My thoughts on aweful subjects roll,  Dam–na–tion and _____ the  dead; ___ What horrors seize the guilty soul __ Up–on a dying bed! Up–on a  dy – ing   bed! ___" A4- | %1
 A4 A2 A2 | A8 | F4 D2 D2 | A8- | A4 A4 | d2 d2 (c4 | d2 c2 B2) B2 | A8- | A8 | A4 A2 A2 | [Ac]8 | %12
 c4 e2 e2 | A8- | A4 d4 | f2 f2 e2 e2 | d4 c4 | c2 c2 c4 | A8 | A8- | A4 |] %21
V:2
 D4- | D4 E2 E2 | F8 | F4 F2 F2 | A8 | z4 D4 | F2 F2 (E4 | D2 G2 F2) E2 | E8- | E4 z4 | D4 A2 A2 | %11
 A8 | A4 E2 E2 | F8 | z4 F4 | A2 A2 A2 A2 | A4 A4 | A2 F2 F4 | ^C8 | D8- | D4 |] %21
V:3
"^2. Amazing grace! that kept my breath,    Nor bid my soul ________ re – move,     Till I had learned my Savior's death, And well ensured his love! And well ensured his love!" A4- | %1
 A4 c2 c2 | d8 | A4 F2 F2 | D8 | z4 F4 | D2 D2 (E4 | F3 E F2) G2 | A8- | A4 z4 | A4 f2 f2 | e8 | %12
 f4 ^c2 c2 | d8 | z4 A4 | d2 d2 c2 c2 | A4 F4 | A2 A2 F4 | E8 | D8- | D4 |] %21
V:4
"^_______________________________________________________________\nTune first published in Andrew Law's \nSelect Number\n \nof Tunes\n, 1781, without words;\nwords were added in Andrew Law's Rudiments of Music, 1792." D,4- | %1
 D,4 A,,2 A,,2 | D,8 | F,4 A,2 A,2 | D,8- | D,4 D,4 | A,2 A,2 (G,4 | F,2 E,2 D,2) E,2 | A,,8- | %9
 A,,8 | D,4 F,2 F,2 | A,8 | F,4 E,2 E,2 | D,8- | D,4 D,4 | D,2 D,2 A,,2 A,,2 | D,4 A,4 | %17
 F,2 F,2 A,4 | A,,8 | D,8- | D,4 |] %21

